X:0389
T:Humours of Graignamanoch.
M:6/8
L:1/8
Q:3/8=120
I: (1) || (2) || :: (1) :| (2) || ::
Z:Jack Campin * www.campin.me.uk * 2009
K:D
dFF FAB|BGE  EFE|dFF FED|   d2d def |
dFF FAB|BGE  EFE|DEF dFF|[1 A3  d3 :|\
                         [2 A3  A3 ||
ABA A2g|fed Tc2B|ABA A2g|   fef a3  |
ABA A2g|fed  cBc|dFF FEF|   d3  d2B:|
dFF dFF|BGE  BGE|dFF dFF|   d3  def |
dFF dFF|BGE  BGE|DEF dFF|[1 A3  d3 :|\
                         [2 A3  A3 ||
ece ece|fdf  fdf|ece ece|   f2g a3  |
aff gee|fdd  cBA|dFF FEF|   d3  def:|
<end>
<start>
